X:1
T: Not Her First Choice
C:
R:Jig
Q:180
K:A
M:6/8
L:1/16
e4|A6 a4f2|e2c2A2 B4c2|A4A2 F2A2F2|F2E2F2 E4E2|F4A2 B4E2|c2B2A2 B4e2|f2e2f2 a4f2|f2e2c2 B2E2F2|
A6a4f2|e2c2A2 B4c2|A4A2 F2A2F2|F2E2F2 E4E2|F4A2 B4E2|c2B2A2 B4e2|f2e2f2 a4f2|f2e2f2 b6|
a4f2 f2a2f2|f2e2c2 B4c2|A4F2 B2A2F2|F2E2F2 E6|F2A2A2 B4c2|B2A2B2 c4e2|f2e2c2 e2f2a2|f2e2f2b6|
a2f2f2 e2c4|B2A2F2 E4E2|F2A2c2 B2c2B2|A2F2D2 E4E2|D2F2F2 A4c2|B2A2B2 c2e2f2|a6 a2f2e2|c2B2A2 A4||
